SVG_Azure_Grouped/Management/Certificate Configuration.svg

<?xml version="1.0" encoding="UTF-8" standalone="no"?>
<!-- Generated by Microsoft Visio, SVG Export Certificate Configuration.svg Page-1 -->

<svg
   xmlns:dc="http://purl.org/dc/elements/1.1/"
   xmlns:cc="http://creativecommons.org/ns#"
   xmlns:rdf="http://www.w3.org/1999/02/22-rdf-syntax-ns#"
   xmlns:svg="http://www.w3.org/2000/svg"
   xmlns="http://www.w3.org/2000/svg"
   xmlns:sodipodi="http://sodipodi.sourceforge.net/DTD/sodipodi-0.dtd"
   xmlns:inkscape="http://www.inkscape.org/namespaces/inkscape"
   width="0.78735679in"
   height="0.78735679in"
   viewBox="0 0 56.689597 56.69"
   xml:space="preserve"
   class="st3"
   version="1.1"
   id="svg34"
   sodipodi:docname="Certificate Configuration.svg"
   style="font-size:12px;overflow:visible;color-interpolation-filters:sRGB;fill:none;fill-rule:evenodd;stroke-linecap:square;stroke-miterlimit:3"
   inkscape:version="0.92.5 (2060ec1f9f, 2020-04-08)"><metadata
   id="metadata38"><rdf:RDF><cc:Work
       rdf:about=""><dc:format>image/svg+xml</dc:format><dc:type
         rdf:resource="http://purl.org/dc/dcmitype/StillImage" /></cc:Work></rdf:RDF></metadata><sodipodi:namedview
   pagecolor="#ffffff"
   bordercolor="#666666"
   borderopacity="1"
   objecttolerance="10"
   gridtolerance="10"
   guidetolerance="10"
   inkscape:pageopacity="0"
   inkscape:pageshadow="2"
   inkscape:window-width="640"
   inkscape:window-height="480"
   id="namedview36"
   showgrid="false"
   inkscape:zoom="1.4193119"
   inkscape:cx="37.795128"
   inkscape:cy="37.786193"
   inkscape:window-x="0"
   inkscape:window-y="0"
   inkscape:window-maximized="0"
   inkscape:current-layer="svg34" />
	<style
   type="text/css"
   id="style2">
	<![CDATA[
		.st1 {fill:url(#grad0-6);stroke:none;stroke-linecap:butt;stroke-width:34}
		.st2 {fill:#ffffff;stroke:none;stroke-linecap:butt;stroke-width:34}
		.st3 {fill:none;fill-rule:evenodd;font-size:12px;overflow:visible;stroke-linecap:square;stroke-miterlimit:3}
	]]>
	</style>

	<defs
   id="Patterns_And_Gradients">
		<linearGradient
   id="grad0-6"
   x1="0"
   y1="68.02"
   x2="56.69"
   y2="68.02"
   gradientUnits="userSpaceOnUse">
			<stop
   offset="0"
   stop-color="#32bedd"
   stop-opacity="1"
   id="stop4" />
			<stop
   offset="0.225"
   stop-color="#32c9e9"
   stop-opacity="1"
   id="stop6" />
			<stop
   offset="0.545"
   stop-color="#32d1f2"
   stop-opacity="1"
   id="stop8" />
			<stop
   offset="1"
   stop-color="#32d4f5"
   stop-opacity="1"
   id="stop10" />
		</linearGradient>
	</defs>
	<g
   id="g32"
   transform="translate(-34.000441,-34.0043)">
		<title
   id="title14">Page-1</title>
		<g
   id="group12506-1"
   transform="translate(34,-34.0157)">
			<title
   id="title16">Certificate Configuration.12506</title>
			<g
   id="group12507-2">
				<title
   id="title18"> MsPortalFx.base.images-76</title>
				<g
   id="shape12508-3">
					<title
   id="title20">Sheet.12508</title>
					<path
   d="m 56.69,99.55 v -6.37 l -1,-0.34 -7,-2.35 -1.67,-4.36 3.67,-7.38 -4.67,-4.7 -1,0.34 -6.34,3.35 -4.33,-1.67 -3,-8.05 h -6.34 l -0.33,1 -2.34,6.71 -4.33,2.01 L 10.67,74.05 6,78.75 6.34,79.76 9.67,86.13 8,90.49 0,93.51 v 6.37 l 1,0.34 7,2.35 1.67,4.36 -3.67,7.38 4.67,4.7 1,-0.34 6.34,-3.35 4.33,1.67 3.01,7.72 h 6.33 l 0.33,-1.01 2.34,-7.04 4.33,-1.68 7.34,3.69 4.67,-4.7 -0.33,-0.67 -3.34,-6.37 1.67,-4.36 z"
   class="st1"
   id="path22"
   inkscape:connector-curvature="0"
   style="fill:url(#grad0-6);stroke:none;stroke-width:34;stroke-linecap:butt" />
				</g>
				<g
   id="shape12509-7"
   transform="translate(13.673,-13.083)">
					<title
   id="title25">Sheet.12509</title>
					<path
   d="m 25.68,101.23 -2.67,2.34 c 3.67,4.03 3.34,10.4 -1,14.09 -4.34,3.69 -10.34,3.36 -14.01,-1 -3.33,-3.69 -3.33,-9.4 0,-13.09 h 0.34 l 2,1.68 h 0.33 v -0.33 L 10,98.21 C 10,97.87 9.67,97.87 9.34,97.87 L 3,98.88 c 0,0 -0.33,0 -0.33,0.33 l 2,1.68 v 0.34 c -4.67,5.7 -4,14.09 1.67,18.78 5.67,4.7 14,4.03 18.67,-1.68 5,-5.03 5,-12.41 0.67,-17.1 z"
   class="st2"
   id="path27"
   inkscape:connector-curvature="0"
   style="fill:#ffffff;stroke:none;stroke-width:34;stroke-linecap:butt" />
				</g>
			</g>
		</g>
	</g>
</svg>

<?xml version="1.0" encoding="UTF-8" standalone="no"?>
<!DOCTYPE svg PUBLIC "-//W3C//DTD SVG 1.1//EN" "http://www.w3.org/Graphics/SVG/1.1/DTD/svg11.dtd">
<!-- Generated by Microsoft Visio, SVG Export Certificate Configuration.svg Page-1 -->
<svg xmlns="http://www.w3.org/2000/svg" xmlns:xlink="http://www.w3.org/1999/xlink" xmlns:ev="http://www.w3.org/2001/xml-events"
		width="1.73185in" height="1.73206in" viewBox="0 0 124.693 124.709" xml:space="preserve" color-interpolation-filters="sRGB"
		class="st3">
	<style type="text/css">
	<![CDATA[
		.st1 {fill:url(#grad0-6);stroke:none;stroke-linecap:butt;stroke-width:34}
		.st2 {fill:#ffffff;stroke:none;stroke-linecap:butt;stroke-width:34}
		.st3 {fill:none;fill-rule:evenodd;font-size:12px;overflow:visible;stroke-linecap:square;stroke-miterlimit:3}
	]]>
	</style>

	<defs id="Patterns_And_Gradients">
		<linearGradient id="grad0-6" x1="0" y1="0" x2="1" y2="0" gradientTransform="rotate(-90 0.5 0.5)">
			<stop offset="0" stop-color="#32bedd" stop-opacity="1"/>
			<stop offset="0.225" stop-color="#32c9e9" stop-opacity="1"/>
			<stop offset="0.545" stop-color="#32d1f2" stop-opacity="1"/>
			<stop offset="1" stop-color="#32d4f5" stop-opacity="1"/>
		</linearGradient>
	</defs>
	<g>
		<title>Page-1</title>
		<g id="group12224-1" transform="translate(34,-34.0157)">
			<title>Certificate Configuration.12224</title>
			<g id="group12225-2">
				<title> MsPortalFx.base.images-76</title>
				<g id="shape12226-3">
					<title>Sheet.12226</title>
					<path d="M56.69 99.55 L56.69 93.18 L55.69 92.84 L48.69 90.49 L47.02 86.13 L50.69 78.75 L46.02 74.05 L45.02 74.39
								 L38.68 77.74 L34.35 76.07 L31.35 68.02 L25.01 68.02 L24.68 69.02 L22.34 75.73 L18.01 77.74 L10.67
								 74.05 L6 78.75 L6.34 79.76 L9.67 86.13 L8 90.49 L0 93.51 L0 99.88 L1 100.22 L8 102.57 L9.67 106.93
								 L6 114.31 L10.67 119.01 L11.67 118.67 L18.01 115.32 L22.34 116.99 L25.35 124.71 L31.68 124.71 L32.01
								 123.7 L34.35 116.66 L38.68 114.98 L46.02 118.67 L50.69 113.97 L50.36 113.3 L47.02 106.93 L48.69
								 102.57 L56.69 99.55 Z" class="st1"/>
				</g>
				<g id="shape12227-7" transform="translate(13.673,-13.083)">
					<title>Sheet.12227</title>
					<path d="M25.68 101.23 L23.01 103.57 C26.68 107.6 26.35 113.97 22.01 117.66 C17.67 121.35 11.67 121.02 8 116.66
								 C4.67 112.97 4.67 107.26 8 103.57 L8.34 103.57 L10.34 105.25 L10.67 105.25 L10.67 104.92 L10 98.21
								 C10 97.87 9.67 97.87 9.34 97.87 L3 98.88 C3 98.88 2.67 98.88 2.67 99.21 L4.67 100.89 L4.67 101.23
								 C0 106.93 0.67 115.32 6.34 120.01 C12.01 124.71 20.34 124.04 25.01 118.33 C30.01 113.3 30.01 105.92
								 25.68 101.23 Z" class="st2"/>
				</g>
			</g>
		</g>
	</g>
</svg>
